svg/u1f6c1.svg

<svg viewBox="0 0 128 128" xmlns="http://www.w3.org/2000/svg">
  <g>
    <path d="M117.34,17.56c0.12-4.96-2.09-9.62-5.95-11.85c-5.8-3.35-12.44-1.66-15.71,4l-1.53,2.59l3.44,1.95 l1.33-2.33c2.22-3.85,6.58-4.98,10.43-2.76c2.49,1.44,4.12,4.35,4.03,8.32v61.58l3.97-0.02V17.56z" fill="#BDBDBD"/>
    <radialGradient id="SVGID_1_" cx="57.7793" cy="-6.6966" gradientTransform="matrix(0.9874 0.0919 -0.0919 0.9874 7.4297 73.6986)" gradientUnits="userSpaceOnUse" r="5.6001">
      <stop offset="0.2197" stop-color="#80DEEA" stop-opacity="0"/>
      <stop offset="1" stop-color="#80DEEA" stop-opacity="0.8"/>
    </radialGradient>
    <circle cx="64.96" cy="72.32" r="5" fill="url(#SVGID_1_)"/>
    <radialGradient id="SVGID_2_" cx="105.6142" cy="-9.6118" gradientTransform="matrix(0.845 0.5189 -0.5189 0.845 18.3382 26.9947)" gradientUnits="userSpaceOnUse" r="6.3322">
      <stop offset="0.2611" stop-color="#80DEEA" stop-opacity="0"/>
      <stop offset="1" stop-color="#80DEEA" stop-opacity="0.8"/>
    </radialGradient>
    <circle cx="112.47" cy="73.52" r="5.66" fill="url(#SVGID_2_)"/>
    <radialGradient id="SVGID_3_" cx="68.0999" cy="-6.1431" gradientTransform="matrix(0.9874 0.0919 -0.0919 0.9874 7.4297 73.6986)" gradientUnits="userSpaceOnUse" r="8.834">
      <stop offset="0.3043" stop-color="#80DEEA" stop-opacity="0"/>
      <stop offset="1" stop-color="#80DEEA" stop-opacity="0.8"/>
    </radialGradient>
    <circle cx="75.14" cy="73.25" r="7.89" fill="url(#SVGID_3_)"/>
    <radialGradient id="SVGID_4_" cx="79.7939" cy="-10.8933" gradientTransform="matrix(0.9874 0.0919 -0.0919 0.9874 7.4297 73.6986)" gradientUnits="userSpaceOnUse" r="10.5874">
      <stop offset="0.2611" stop-color="#80DEEA" stop-opacity="0"/>
      <stop offset="1" stop-color="#80DEEA" stop-opacity="0.8"/>
    </radialGradient>
    <circle cx="86.95" cy="70.12" r="9.46" fill="url(#SVGID_4_)"/>
    <radialGradient id="SVGID_5_" cx="94.4716" cy="-7.4329" gradientTransform="matrix(0.9874 0.0919 -0.0919 0.9874 7.4297 73.6986)" gradientUnits="userSpaceOnUse" r="10.9">
      <stop offset="0.2611" stop-color="#80DEEA" stop-opacity="0"/>
      <stop offset="1" stop-color="#80DEEA" stop-opacity="0.8"/>
    </radialGradient>
    <circle cx="101.12" cy="74.88" r="9.74" fill="url(#SVGID_5_)"/>
    <radialGradient id="SVGID_6_" cx="79.2501" cy="-114.3143" gradientTransform="matrix(0.8557 0.5011 -0.5055 0.8633 -27.4933 119.117)" gradientUnits="userSpaceOnUse" r="9.6448">
      <stop offset="0.3759" stop-color="#80DEEA" stop-opacity="0"/>
      <stop offset="1" stop-color="#80DEEA" stop-opacity="0.8"/>
    </radialGradient>
    <circle cx="97.94" cy="59.69" r="8.07" fill="url(#SVGID_6_)"/>
    <path d="M100.53,9.89c-0.6-1.22-2.31-2.16-3.44-2.16c-0.79,0-1.18,0.5-1.71,1.41v0 c-0.52,0.9-0.21,2.06,0.69,2.58l1.64,0.94c0.9,0.52,2.06,0.21,2.58-0.69v0C100.81,11.07,100.86,10.56,100.53,9.89z" fill="#78909C"/>
    <path d="M98.06,10.6c-4.32-2.49-10.18-0.43-12.69,3.85c0,0,2.53,3.31,7.25,5.95s8.45,3.11,8.45,3.11 C103.52,19.2,102.38,13.1,98.06,10.6z" fill="#BDBDBD"/>
    <path d="M99.05,25.62c0,0-3.61-0.59-8.16-3.4s-6.71-5.18-6.71-5.18c-0.74-0.77-1.22-1.68-0.69-2.59v0 c0.52-0.91,1.94-1.38,2.59-0.69c0,0,1.94,2.54,6.73,5.19c5.17,2.86,8.14,3.39,8.14,3.39c1.17,0.27,1.22,1.68,0.69,2.59v0 C101.12,25.84,99.74,25.86,99.05,25.62z" fill="#78909C"/>
    <path d="M88.97,13.18c0.43-1.51,2.8-2.56,4.43-2.76c1.58-0.2,2.54,0.29,2.53,1.12 c-0.01,0.79-0.93,1.04-1.59,1.03c-2.33-0.05-3.23,0.46-3.63,0.69C88.97,14.24,88.93,13.34,88.97,13.18z" fill="#DFECF5"/>
    <radialGradient id="SVGID_7_" cx="74.745" cy="-31.1192" gradientTransform="matrix(0.9874 0.0919 -0.0919 0.9874 7.4297 73.6986)" gradientUnits="userSpaceOnUse" r="6.2701">
      <stop offset="0.3759" stop-color="#80DEEA" stop-opacity="0"/>
      <stop offset="1" stop-color="#80DEEA" stop-opacity="0.8"/>
    </radialGradient>
    <circle cx="83.27" cy="48.95" r="6.01" fill="url(#SVGID_7_)"/>
    <path d="M78.98,48.21c0.5-0.02,0.92-0.77,1.82-1.46c0.82-0.62,2.01-0.92,2.73-0.96 c0.4-0.02,0.97-0.15,1.2-0.57c0.13-0.24-0.08-1.42-1.76-1.19c-1.98,0.27-3.72,1.57-4.16,2.75C78.53,47.56,78.5,48.22,78.98,48.21z" opacity="0.8" fill="#FFFFFF"/>
    <path d="M13.06,75.92c5.32,20.33,4.89,36.85,23.12,36.85l66.2,0.48c20.91-0.25,14.58-27.44,19.51-37.18 c-16.68,1.77-31.8,2.05-50.2,0.83c-13.07-0.86-24.37-9.25-36.93-12.07c-8.67-1.31-18.27-3.35-26.74-0.5 C10.14,67.99,11.83,71.88,13.06,75.92z" fill="#EEEEEE"/>
    <path d="M114.23,82.29c-2.66,1.54-2.83,7.53-2.54,10.72c0.8,8.98-0.04,14.4-4.26,16.32 c-0.01-0.33-0.07-0.7-0.24-1.12c-0.56-1.4-1.84-2.64-3.35-2.65c-2.92-0.02-3.89,1.13-5.56,2.39c-1.2,0.91-2.72,2.02-4.9,2.27l0,0 l-48.63-0.35l0,0c-1.97-0.12-3.66-1.23-4.86-2.14c-1.88-1.43-2.51-1.91-4.95-2.41c-1.48-0.3-2.79,0.65-3.34,2.05 c-0.31,0.77-0.35,1.4-0.19,1.91c-11.91-1.61-11.32-27.76-17.74-40.29c-2.08-4.06-5.03-3.56-4.82-3.19 c1.74,3.23,3.16,6.63,4.23,10.14c5.32,20.33,4.89,36.85,23.12,36.85l66.2,0.48c14.95-0.18,16.86-14.27,17.89-31.59 C120.36,80.23,115.47,81.57,114.23,82.29z" fill="#B7D5E5"/>
    <path d="M10.41,69.03C15.36,68,20.47,68.92,22,69.25c14.95,3.23,24.77,9.51,42.52,13.43 c19.71,4.35,42.22,3.06,55.68,0.1c0,0,0.52-3.58,0.97-4.95c0,0-27.73,3.6-46.03,1.35C56.02,76.83,34.08,66.16,21.31,64.6 c-9.66-1.18-12.82,0.78-12.82,0.78L10.41,69.03z" fill="#69A1BA"/>
    <path d="M33,105.34c-2.41-0.3-2.84,2.8-2.84,2.8s-1.45-1.82-3.85-1.24c-1.47,0.36-1.99,2.2-1.35,2.68 c1.14,0.86,4.95,2.78,3.81,5.5c-0.44,1.06-1.65,1.37-2.81,1.89c-2.66,1.2-3.7,3.18-3.96,4.45c-0.06,0.3-0.08,0.77,0.6,1.13 s1.93,0.7,5.12,0.7s5.43-0.59,5.78-1.06c1.16-1.58-1-4.69,1.41-7.77c0.98-1.26,1.76-1.04,4.22-1.62c0.6-0.14,0.49-1.67-0.34-2.66 c-0.64-0.77-2.63-1.15-3.9-0.46C34.89,109.68,35.98,105.71,33,105.34z" fill="#BDBDBD"/>
    <path d="M39.61,110c-1.54-1.68-3.73-0.82-4.12-0.61c0.29-0.16,0.14-1.65,0.1-1.9 c-0.18-1.18-1.23-2.03-2.45-2.13c2.45,1.26,0.96,4.72,0.96,4.72s0.72-0.23,1.76-0.43c1.19-0.22,2.69,0.13,2.85,1.7 c0.08,0.75-1.22,1.02-1.68,1.16c-3.38,1-3.66,2.73-4.01,4.02c-0.34,1.25,0.55,3.35-0.12,4.61c-0.88,1.66-4.34,1.73-6.9,1.38 c-1.98-0.27-4-1.1-4-1.1s-0.12,1,0.6,1.41c3.39,1.92,9.51,1.14,11.33,0.08c0.27-0.16,0.45-0.38,0.51-0.69 c0.09-0.52,0.16-1.46-0.21-2.95c-0.38-1.54-0.18-3.21,0.88-4.48c0.93-1.11,1.75-1.27,4.15-1.54C40.8,113.08,40.48,110.94,39.61,110 z" fill="#78909C"/>
    <path d="M26.48,117.41c1.4-0.47,3.15-0.44,2.94,0.63c-0.12,0.61-0.85,0.93-1.64,1.17 c-0.83,0.24-2.45,0.34-2.58-0.24C25.04,118.24,25.62,117.69,26.48,117.41z" fill="#DFECF5"/>
    <path d="M87.99,81.1c-7.04,0-21.7,0-39-6.67C38.7,70.47,21.74,63.24,7.53,66.38 c-1.61,0.35-3.19-0.66-3.55-2.27c-0.35-1.6,0.66-3.19,2.27-3.55c16.03-3.53,33.97,4.41,45,8.36c16.89,6.05,30.55,6.2,37.05,6.22 c10.93-0.03,21.62-0.23,32.22-2.43c1.61-0.34,3.18,0.7,3.52,2.31c0.33,1.61-0.7,3.18-2.31,3.52c-11.14,2.31-22.16,2.53-33.41,2.55 C88.2,81.1,88.1,81.1,87.99,81.1z" fill="#B7D5E5"/>
    <path d="M31.2,77.94c1.24,2.33,1.37,5.09,1.18,7.72s-0.66,5.26-0.49,7.9c0.15,2.34,2.16,6.24,2.3,7.65 c0.1,0.95-0.77,1.81-1.73,1.9c-0.95,0.09-1.87-0.38-2.65-0.94c-3.24-2.35-4.95-6.29-5.88-10.19c-1.26-5.3-2.6-10.34-3.27-12.08 c-1.94-5.02,1.27-7.27,5.09-6.29C28.05,74.21,30.08,75.85,31.2,77.94z" fill="#FFFFFF"/>
    <path d="M105.01,105.34c2.41-0.3,2.84,2.8,2.84,2.8s1.45-1.82,3.85-1.24c1.47,0.36,1.74,2.3,1.23,2.75 c-1.21,1.04-4.83,2.71-3.69,5.43c0.44,1.06,1.65,1.37,2.81,1.89c2.66,1.2,3.7,3.18,3.96,4.45c0.06,0.3,0.08,0.77-0.6,1.13 c-0.68,0.36-1.93,0.7-5.12,0.7s-5.43-0.59-5.78-1.06c-1.16-1.58,1-4.69-1.41-7.77c-0.98-1.26-1.76-1.04-4.22-1.62 c-0.6-0.14-0.49-1.67,0.34-2.66c0.64-0.77,2.63-1.15,3.9-0.46C103.12,109.68,102.03,105.71,105.01,105.34z" fill="#BDBDBD"/>
    <path d="M98.4,110c1.54-1.68,3.73-0.82,4.12-0.61c-0.29-0.16-0.14-1.65-0.1-1.9 c0.18-1.18,1.23-2.03,2.45-2.13c-2.45,1.26-0.96,4.72-0.96,4.72s-0.72-0.23-1.76-0.43c-1.19-0.22-2.69,0.13-2.85,1.7 c-0.08,0.75,1.22,1.02,1.68,1.16c3.38,1,3.66,2.73,4.01,4.02c0.34,1.25-0.55,3.35,0.12,4.61c0.88,1.66,4.34,1.73,6.9,1.38 c1.98-0.27,4-1.1,4-1.1s0.12,1-0.6,1.41c-3.39,1.92-9.51,1.14-11.33,0.08c-0.27-0.16-0.45-0.38-0.51-0.69 c-0.09-0.52-0.16-1.46,0.21-2.95c0.38-1.54,0.18-3.21-0.88-4.48c-0.93-1.11-1.75-1.27-4.15-1.54 C97.21,113.08,97.53,110.94,98.4,110z" fill="#78909C"/>
    <path d="M107.83,117.35c-0.83,0.7-1.61,2.08-0.96,2.85c0.27,0.32,1.15-0.42,1.36-0.6 c0.55-0.49,1.02-0.84,1.59-1.31c0.25-0.21,0.46-0.5,0.39-0.82C110.05,116.75,108.52,116.77,107.83,117.35z" fill="#DFECF5"/>
    <path d="M82.14,68.06c-0.3,0.21-0.61,0.42-0.97,0.49c-0.36,0.07-0.77-0.01-1-0.29 c-1.78-2.17,3.71-6.54,5.8-5.69c1.38,0.56,1.58,2.46,0.27,3.09C84.72,66.37,83.54,67.06,82.14,68.06z" opacity="0.8" fill="#FFFFFF"/>
    <path d="M93.55,59.15c-0.44-0.07-0.84-0.43-1.01-0.85c-0.21-0.54-0.12-1.15,0.07-1.69 c0.46-1.31,1.54-2.41,2.86-2.84c0.36-0.12,0.74-0.19,1.12-0.13c0.61,0.1,1.13,0.58,1.29,1.18c0.42,1.59-1.24,1.72-2.12,2.48 c-0.63,0.54-0.96,1.67-1.87,1.85C93.77,59.17,93.66,59.17,93.55,59.15z" fill="#FFFFFF"/>
    <path d="M13.35,62.65c-0.33,1.36,1.1,1.59,5.85,1.57c5.72-0.02,9.73,1.83,9.18,0.59 c-0.4-0.9-4.46-3.05-7.87-3.37C18.43,61.24,13.77,60.98,13.35,62.65z" fill="#FFFFFF"/>
  </g>
</svg>

<svg viewBox="0 0 128 128" xmlns="http://www.w3.org/2000/svg">
  <defs>
    <radialGradient id="SVGID_1_" cx="72.126386" cy="66.60713" gradientTransform="matrix(0.9874 0.0919 -0.0919 0.9874 0 0)" gradientUnits="userSpaceOnUse" r="5.6001">
      <stop offset="0.2197" stop-color="#80DEEA" stop-opacity="0"/>
      <stop offset="1" stop-color="#80DEEA" stop-opacity="0.8"/>
    </radialGradient>
    <radialGradient id="SVGID_2_" cx="135.619145" cy="3.909069" gradientTransform="matrix(0.845 0.5189 -0.5189 0.845 0 0)" gradientUnits="userSpaceOnUse" r="6.3322">
      <stop offset="0.2611" stop-color="#80DEEA" stop-opacity="0"/>
      <stop offset="1" stop-color="#80DEEA" stop-opacity="0.8"/>
    </radialGradient>
    <radialGradient id="SVGID_3_" cx="82.446986" cy="67.16063" gradientTransform="matrix(0.9874 0.0919 -0.0919 0.9874 0 0)" gradientUnits="userSpaceOnUse" r="8.834">
      <stop offset="0.3043" stop-color="#80DEEA" stop-opacity="0"/>
      <stop offset="1" stop-color="#80DEEA" stop-opacity="0.8"/>
    </radialGradient>
    <radialGradient id="SVGID_4_" cx="94.140986" cy="62.41043" gradientTransform="matrix(0.9874 0.0919 -0.0919 0.9874 0 0)" gradientUnits="userSpaceOnUse" r="10.5874">
      <stop offset="0.2611" stop-color="#80DEEA" stop-opacity="0"/>
      <stop offset="1" stop-color="#80DEEA" stop-opacity="0.8"/>
    </radialGradient>
    <radialGradient id="SVGID_5_" cx="108.818686" cy="65.87083" gradientTransform="matrix(0.9874 0.0919 -0.0919 0.9874 0 0)" gradientUnits="userSpaceOnUse" r="10.9">
      <stop offset="0.2611" stop-color="#80DEEA" stop-opacity="0"/>
      <stop offset="1" stop-color="#80DEEA" stop-opacity="0.8"/>
    </radialGradient>
    <radialGradient id="SVGID_6_" cx="116.02178" cy="2.320371" gradientTransform="matrix(0.8557 0.5011 -0.5055 0.8633 0 0)" gradientUnits="userSpaceOnUse" r="9.6448">
      <stop offset="0.3759" stop-color="#80DEEA" stop-opacity="0"/>
      <stop offset="1" stop-color="#80DEEA" stop-opacity="0.8"/>
    </radialGradient>
    <radialGradient id="SVGID_7_" cx="89.092086" cy="42.18453" gradientTransform="matrix(0.9874 0.0919 -0.0919 0.9874 0 0)" gradientUnits="userSpaceOnUse" r="6.2701">
      <stop offset="0.3759" stop-color="#80DEEA" stop-opacity="0"/>
      <stop offset="1" stop-color="#80DEEA" stop-opacity="0.8"/>
    </radialGradient>
  </defs>
  <path d="M117.34,17.56 C117.46,12.6 115.25,7.94 111.39,5.71 C105.59,2.36 98.95,4.05 95.68,9.71 L94.15,12.3 L97.59,14.25 L98.92,11.92 C101.14,8.07 105.5,6.94 109.35,9.16 C111.84,10.6 113.47,13.51 113.38,17.48 L113.38,79.06 L117.35,79.04 L117.35,17.56 Z" fill="#BDBDBD"/>
  <path d="M69.96,72.32 A5 5 0 1 1 59.96,72.32 A5 5 0 1 1 69.96,72.32 Z" fill="url(#SVGID_1_)"/>
  <path d="M118.13,73.52 A5.66 5.66 0 1 1 106.81,73.52 A5.66 5.66 0 1 1 118.13,73.52 Z" fill="url(#SVGID_2_)"/>
  <path d="M83.03,73.25 A7.89 7.89 0 1 1 67.25,73.25 A7.89 7.89 0 1 1 83.03,73.25 Z" fill="url(#SVGID_3_)"/>
  <path d="M96.41,70.12 A9.46 9.46 0 1 1 77.49,70.12 A9.46 9.46 0 1 1 96.41,70.12 Z" fill="url(#SVGID_4_)"/>
  <path d="M110.86,74.88 A9.74 9.74 0 1 1 91.38,74.88 A9.74 9.74 0 1 1 110.86,74.88 Z" fill="url(#SVGID_5_)"/>
  <path d="M106.01,59.69 A8.07 8.07 0 1 1 89.87,59.69 A8.07 8.07 0 1 1 106.01,59.69 Z" fill="url(#SVGID_6_)"/>
  <path d="M100.53,9.89 C99.93,8.67 98.22,7.73 97.09,7.73 C96.3,7.73 95.91,8.23 95.38,9.14 L95.38,9.14 C94.86,10.04 95.17,11.2 96.07,11.72 L97.71,12.66 C98.61,13.18 99.77,12.87 100.29,11.97 L100.29,11.97 C100.81,11.07 100.86,10.56 100.53,9.89 Z" fill="#78909C"/>
  <path d="M98.06,10.6 C93.74,8.11 87.88,10.17 85.37,14.45 C85.37,14.45 87.9,17.76 92.62,20.4 C97.34,23.04 101.07,23.51 101.07,23.51 C103.52,19.2 102.38,13.1 98.06,10.6 Z" fill="#BDBDBD"/>
  <path d="M99.05,25.62 C99.05,25.62 95.44,25.03 90.89,22.22 C86.34,19.41 84.18,17.04 84.18,17.04 C83.44,16.27 82.96,15.36 83.49,14.45 L83.49,14.45 C84.01,13.54 85.43,13.07 86.08,13.76 C86.08,13.76 88.02,16.3 92.81,18.95 C97.98,21.81 100.95,22.34 100.95,22.34 C102.12,22.61 102.17,24.02 101.64,24.93 L101.64,24.93 C101.12,25.84 99.74,25.86 99.05,25.62 Z" fill="#78909C"/>
  <path d="M88.97,13.18 C89.4,11.67 91.77,10.62 93.4,10.42 C94.98,10.22 95.94,10.71 95.93,11.54 C95.92,12.33 95,12.58 94.34,12.57 C92.01,12.52 91.11,13.03 90.71,13.26 C88.97,14.24 88.93,13.34 88.97,13.18 Z" fill="#DFECF5"/>
  <path d="M89.28,48.95 A6.01 6.01 0 1 1 77.26,48.95 A6.01 6.01 0 1 1 89.28,48.95 Z" fill="url(#SVGID_7_)"/>
  <path d="M78.98,48.21 C79.48,48.19 79.9,47.44 80.8,46.75 C81.62,46.13 82.81,45.83 83.53,45.79 C83.93,45.77 84.5,45.64 84.73,45.22 C84.86,44.98 84.65,43.8 82.97,44.03 C80.99,44.3 79.25,45.6 78.81,46.78 C78.53,47.56 78.5,48.22 78.98,48.21 Z" fill="#FFFFFF" opacity="0.8"/>
  <path d="M13.06,75.92 C18.38,96.25 17.95,112.77 36.18,112.77 L102.38,113.25 C123.29,113 116.96,85.81 121.89,76.07 C105.21,77.84 90.09,78.12 71.69,76.9 C58.62,76.04 47.32,67.65 34.76,64.83 C26.09,63.52 16.49,61.48 8.02,64.33 C10.14,67.99 11.83,71.88 13.06,75.92 Z" fill="#EEEEEE"/>
  <path d="M114.23,82.29 C111.57,83.83 111.4,89.82 111.69,93.01 C112.49,101.99 111.65,107.41 107.43,109.33 C107.42,109 107.36,108.63 107.19,108.21 C106.63,106.81 105.35,105.57 103.84,105.56 C100.92,105.54 99.95,106.69 98.28,107.95 C97.08,108.86 95.56,109.97 93.38,110.22 L93.38,110.22 L44.75,109.87 L44.75,109.87 C42.78,109.75 41.09,108.64 39.89,107.73 C38.01,106.3 37.38,105.82 34.94,105.32 C33.46,105.02 32.15,105.97 31.6,107.37 C31.29,108.14 31.25,108.77 31.41,109.28 C19.5,107.67 20.09,81.52 13.67,68.99 C11.59,64.93 8.64,65.43 8.85,65.8 C10.59,69.03 12.01,72.43 13.08,75.94 C18.4,96.27 17.97,112.79 36.2,112.79 L102.4,113.27 C117.35,113.09 119.26,99 120.29,81.68 C120.36,80.23 115.47,81.57 114.23,82.29 Z" fill="#B7D5E5"/>
  <path d="M10.41,69.03 C15.36,68 20.47,68.92 22,69.25 C36.95,72.48 46.77,78.76 64.52,82.68 C84.23,87.03 106.74,85.74 120.2,82.78 C120.2,82.78 120.72,79.2 121.17,77.83 C121.17,77.83 93.44,81.43 75.14,79.18 C56.02,76.83 34.08,66.16 21.31,64.6 C11.65,63.42 8.49,65.38 8.49,65.38 L10.41,69.03 Z" fill="#69A1BA"/>
  <path d="M33,105.34 C30.59,105.04 30.16,108.14 30.16,108.14 C30.16,108.14 28.71,106.32 26.31,106.9 C24.84,107.26 24.32,109.1 24.96,109.58 C26.1,110.44 29.91,112.36 28.77,115.08 C28.33,116.14 27.12,116.45 25.96,116.97 C23.3,118.17 22.26,120.15 22,121.42 C21.94,121.72 21.92,122.19 22.6,122.55 C23.28,122.91 24.53,123.25 27.72,123.25 C30.91,123.25 33.15,122.66 33.5,122.19 C34.66,120.61 32.5,117.5 34.91,114.42 C35.89,113.16 36.67,113.38 39.13,112.8 C39.73,112.66 39.62,111.13 38.79,110.14 C38.15,109.37 36.16,108.99 34.89,109.68 C34.89,109.68 35.98,105.71 33,105.34 Z" fill="#BDBDBD"/>
  <path d="M39.61,110 C38.07,108.32 35.88,109.18 35.49,109.39 C35.78,109.23 35.63,107.74 35.59,107.49 C35.41,106.31 34.36,105.46 33.14,105.36 C35.59,106.62 34.1,110.08 34.1,110.08 C34.1,110.08 34.82,109.85 35.86,109.65 C37.05,109.43 38.55,109.78 38.71,111.35 C38.79,112.1 37.49,112.37 37.03,112.51 C33.65,113.51 33.37,115.24 33.02,116.53 C32.68,117.78 33.57,119.88 32.9,121.14 C32.02,122.8 28.56,122.87 26,122.52 C24.02,122.25 22,121.42 22,121.42 C22,121.42 21.88,122.42 22.6,122.83 C25.99,124.75 32.11,123.97 33.93,122.91 C34.2,122.75 34.38,122.53 34.44,122.22 C34.53,121.7 34.6,120.76 34.23,119.27 C33.85,117.73 34.05,116.06 35.11,114.79 C36.04,113.68 36.86,113.52 39.26,113.25 C40.8,113.08 40.48,110.94 39.61,110 Z" fill="#78909C"/>
  <path d="M26.48,117.41 C27.88,116.94 29.63,116.97 29.42,118.04 C29.3,118.65 28.57,118.97 27.78,119.21 C26.95,119.45 25.33,119.55 25.2,118.97 C25.04,118.24 25.62,117.69 26.48,117.41 Z" fill="#DFECF5"/>
  <path d="M87.99,81.1 C80.95,81.1 66.29,81.1 48.99,74.43 C38.7,70.47 21.74,63.24 7.53,66.38 C5.92,66.73 4.34,65.72 3.98,64.11 C3.63,62.51 4.64,60.92 6.25,60.56 C22.28,57.03 40.22,64.97 51.25,68.92 C68.14,74.97 81.8,75.12 88.3,75.14 C99.23,75.11 109.92,74.91 120.52,72.71 C122.13,72.37 123.7,73.41 124.04,75.02 C124.37,76.63 123.34,78.2 121.73,78.54 C110.59,80.85 99.57,81.07 88.32,81.09 C88.2,81.1 88.1,81.1 87.99,81.1 Z" fill="#B7D5E5"/>
  <path d="M31.2,77.94 C32.44,80.27 32.57,83.03 32.38,85.66 C32.19,88.29 31.72,90.92 31.89,93.56 C32.04,95.9 34.05,99.8 34.19,101.21 C34.29,102.16 33.42,103.02 32.46,103.11 C31.51,103.2 30.59,102.73 29.81,102.17 C26.57,99.82 24.86,95.88 23.93,91.98 C22.67,86.68 21.33,81.64 20.66,79.9 C18.72,74.88 21.93,72.63 25.75,73.61 C28.05,74.21 30.08,75.85 31.2,77.94 Z" fill="#FFFFFF"/>
  <path d="M105.01,105.34 C107.42,105.04 107.85,108.14 107.85,108.14 C107.85,108.14 109.3,106.32 111.7,106.9 C113.17,107.26 113.44,109.2 112.93,109.65 C111.72,110.69 108.1,112.36 109.24,115.08 C109.68,116.14 110.89,116.45 112.05,116.97 C114.71,118.17 115.75,120.15 116.01,121.42 C116.07,121.72 116.09,122.19 115.41,122.55 C114.73,122.91 113.48,123.25 110.29,123.25 C107.1,123.25 104.86,122.66 104.51,122.19 C103.35,120.61 105.51,117.5 103.1,114.42 C102.12,113.16 101.34,113.38 98.88,112.8 C98.28,112.66 98.39,111.13 99.22,110.14 C99.86,109.37 101.85,108.99 103.12,109.68 C103.12,109.68 102.03,105.71 105.01,105.34 Z" fill="#BDBDBD"/>
  <path d="M98.4,110 C99.94,108.32 102.13,109.18 102.52,109.39 C102.23,109.23 102.38,107.74 102.42,107.49 C102.6,106.31 103.65,105.46 104.87,105.36 C102.42,106.62 103.91,110.08 103.91,110.08 C103.91,110.08 103.19,109.85 102.15,109.65 C100.96,109.43 99.46,109.78 99.3,111.35 C99.22,112.1 100.52,112.37 100.98,112.51 C104.36,113.51 104.64,115.24 104.99,116.53 C105.33,117.78 104.44,119.88 105.11,121.14 C105.99,122.8 109.45,122.87 112.01,122.52 C113.99,122.25 116.01,121.42 116.01,121.42 C116.01,121.42 116.13,122.42 115.41,122.83 C112.02,124.75 105.9,123.97 104.08,122.91 C103.81,122.75 103.63,122.53 103.57,122.22 C103.48,121.7 103.41,120.76 103.78,119.27 C104.16,117.73 103.96,116.06 102.9,114.79 C101.97,113.68 101.15,113.52 98.75,113.25 C97.21,113.08 97.53,110.94 98.4,110 Z" fill="#78909C"/>
  <path d="M107.83,117.35 C107,118.05 106.22,119.43 106.87,120.2 C107.14,120.52 108.02,119.78 108.23,119.6 C108.78,119.11 109.25,118.76 109.82,118.29 C110.07,118.08 110.28,117.79 110.21,117.47 C110.05,116.75 108.52,116.77 107.83,117.35 Z" fill="#DFECF5"/>
  <path d="M82.14,68.06 C81.84,68.27 81.53,68.48 81.17,68.55 C80.81,68.62 80.4,68.54 80.17,68.26 C78.39,66.09 83.88,61.72 85.97,62.57 C87.35,63.13 87.55,65.03 86.24,65.66 C84.72,66.37 83.54,67.06 82.14,68.06 Z" fill="#FFFFFF" opacity="0.8"/>
  <path d="M93.55,59.15 C93.11,59.08 92.71,58.72 92.54,58.3 C92.33,57.76 92.42,57.15 92.61,56.61 C93.07,55.3 94.15,54.2 95.47,53.77 C95.83,53.65 96.21,53.58 96.59,53.64 C97.2,53.74 97.72,54.22 97.88,54.82 C98.3,56.41 96.64,56.54 95.76,57.3 C95.13,57.84 94.8,58.97 93.89,59.15 C93.77,59.17 93.66,59.17 93.55,59.15 Z" fill="#FFFFFF"/>
  <path d="M13.35,62.65 C13.02,64.01 14.45,64.24 19.2,64.22 C24.92,64.2 28.93,66.05 28.38,64.81 C27.98,63.91 23.92,61.76 20.51,61.44 C18.43,61.24 13.77,60.98 13.35,62.65 Z" fill="#FFFFFF"/>
</svg>
